build/images/social-icons/insta.svg

<svg xmlns="http://www.w3.org/2000/svg" viewBox="0 0 27 27"><circle cx="13.5" cy="13.5" r="13" opacity=".5" fill="none" stroke="#3e75ba"/><path d="M16.1 7h-4.8c-2.2 0-4 1.7-4 3.9v4.7c0 2.2 1.8 3.9 4 3.9h4.8c2.2 0 3.9-1.7 4-3.9v-4.7c0-2.2-1.8-3.9-4-3.9zm2.8 8.6c0 1.5-1.3 2.7-2.8 2.7h-4.8c-1.5 0-2.8-1.2-2.8-2.7v-4.7c0-1.5 1.3-2.7 2.8-2.7h4.8c1.5 0 2.8 1.2 2.8 2.7v4.7zm-5.2-5.5c-1.7 0-3.1 1.5-3.1 3.2s1.5 3.1 3.2 3.1c1.7 0 3.1-1.4 3.1-3.1 0-1.8-1.4-3.2-3.2-3.2zm0 5.1c-1.1 0-1.9-.9-1.9-2s.9-1.9 2-1.9 1.9.9 1.9 1.9c0 1.2-.9 2-2 2zm3.4-5.7c.2 0 .4.2.4.4s-.2.4-.4.4-.4-.2-.4-.4.2-.4.4-.4z" fill="#3e75ba"/></svg>

<?xml version="1.0" encoding="utf-8"?>
<!-- Generator: Adobe Illustrator 21.0.2, SVG Export Plug-In . SVG Version: 6.00 Build 0)  -->
<svg version="1.1" id="Layer_1" xmlns="http://www.w3.org/2000/svg" xmlns:xlink="http://www.w3.org/1999/xlink" x="0px" y="0px"
	 viewBox="0 0 27 27" style="enable-background:new 0 0 27 27;" xml:space="preserve">
<style type="text/css">
	.st0{opacity:0.5;fill:none;stroke:#3E75BA;enable-background:new    ;}
	.st1{fill:#3E75BA;}
</style>
<circle id="Ellipse_3_copy" class="st0" cx="13.5" cy="13.5" r="13"/>
<path id="Forma_1" class="st1" d="M16.1,7h-4.8c-2.2,0-4,1.7-4,3.9v4.7c0,2.2,1.8,3.9,4,3.9h4.8c2.2,0,3.9-1.7,4-3.9v-4.7
	C20.1,8.7,18.3,7,16.1,7z M18.9,15.6c0,1.5-1.3,2.7-2.8,2.7h-4.8c-1.5,0-2.8-1.2-2.8-2.7v-4.7c0-1.5,1.3-2.7,2.8-2.7h4.8
	c1.5,0,2.8,1.2,2.8,2.7V15.6z M13.7,10.1c-1.7,0-3.1,1.5-3.1,3.2s1.5,3.1,3.2,3.1c1.7,0,3.1-1.4,3.1-3.1
	C16.9,11.5,15.5,10.1,13.7,10.1C13.7,10.1,13.7,10.1,13.7,10.1z M13.7,15.2c-1.1,0-1.9-0.9-1.9-2s0.9-1.9,2-1.9
	c1.1,0,1.9,0.9,1.9,1.9C15.7,14.4,14.8,15.2,13.7,15.2C13.7,15.2,13.7,15.2,13.7,15.2z M17.1,9.5c0.2,0,0.4,0.2,0.4,0.4c0,0,0,0,0,0
	c0,0.2-0.2,0.4-0.4,0.4c-0.2,0-0.4-0.2-0.4-0.4C16.7,9.7,16.9,9.5,17.1,9.5C17.1,9.5,17.1,9.5,17.1,9.5z"/>
</svg>
